packages/core/src/svgs/tokens/mono/JMPT.svg

<svg width="24" height="24" viewBox="0 0 24 24" fill="none" xmlns="http://www.w3.org/2000/svg">
<path d="M17.2632 6.21053L14.8947 2L12.5262 6.21053H13.5789V18.1053C13.5789 18.5241 13.4125 18.9256 13.1165 19.2217C12.8204 19.5179 12.4188 19.6842 12 19.6842C11.5812 19.6842 11.1797 19.5179 10.8835 19.2217C10.5874 18.9256 10.4211 18.5241 10.4211 18.1053V10.4211H11.4737L9.10524 6.21053L6.73682 10.4211H7.78945V18.2895C7.78945 20.3421 9.38418 22 11.3473 22H12.6526C14.6158 22 16.2105 20.3368 16.2105 18.2895V6.21053H17.2632Z" fill="white"/>
</svg>

<svg xmlns="http://www.w3.org/2000/svg" width="24" height="24" fill="none" viewBox="0 0 24 24">
    <path fill="#fff" d="M17.263 6.21 14.895 2l-2.369 4.21h1.053v11.895a1.58 1.58 0 0 1-3.158 0v-7.684h1.053l-2.369-4.21-2.368 4.21h1.052v7.869c0 2.052 1.595 3.71 3.558 3.71h1.306c1.963 0 3.557-1.663 3.557-3.71V6.21z"/>
</svg>
